X: 678
T: Xiaonigu sifan
%%abc-version 2.0
%%abcx-abcm2ps-target-version 5.9.1 (29 Sep 2008)
%%abc-creator hum2abc beta
%%abcx-conversion-date 2013/10/02 07:52:30
%%abc-edited-by Helmut Schaffrath
%%humdrum-veritas 1723734679
%%humdrum-veritas-data 434818919
%%continueall 1
%%barnumbers 0
L: 1/8
M: 2/4
K: Eb
G e d c [I:setbarnb 1]| 
B3G/ B/ | 
e> g f/ g/ e | 
B4 | 
e2e c | 
B c A G | 
F4 | 
e2e c | 
B> e c B | 
E F G c | 
B G F/ G/ E | 
C EB,2 | 
G> F G C | 
B,4 | 
C2D2 | 
C D C B, | 
C2D2 | 
C D C B, | 
F D F B | 
G> F D F | 
C4 | 
e2e c | 
B> e c B | 
E> F G c | 
B G F G/ B/ | 
C2E2 | 
E F G c | 
B G F G | 
C B, D C | 
B,4 |]  



